brandFactory_export/2.Regular/Movil pausa_2Regular.svg

<?xml version="1.0" encoding="UTF-8"?>
<svg width="24px" height="24px" viewBox="0 0 24 24" version="1.1" xmlns="http://www.w3.org/2000/svg" xmlns:xlink="http://www.w3.org/1999/xlink">
    <title>2.Regular/Movil pausa_2Regular</title>
    <g id="Symbols" stroke="none" stroke-width="1" fill="none" fill-rule="evenodd">
        <g id="2.Regular/Movil-pausa_2Regular" fill="#5CB615" fill-rule="nonzero">
            <path d="M22.1613445,19.1932773 L22.1613445,4.4302521 C22.1613445,3.38823529 21.9260504,2.64537815 21.4420168,2.16470588 C20.9546218,1.68067227 20.205042,1.4487395 19.1495798,1.4487395 L11.7008403,1.4487395 C10.6588235,1.4487395 9.9092437,1.68739496 9.41512605,2.18151261 C8.92773109,2.67226891 8.68907563,3.40504202 8.68907563,4.4302521 L8.68907563,5.03193277 C12.2084034,5.52268908 14.2218487,7.77142857 14.2218487,11.9731092 C14.2218487,16.1747899 12.2151261,18.4168067 8.69915966,18.9109244 L8.69915966,19.6235294 C8.75294118,20.4336134 8.98487395,21.0521008 9.41176471,21.4689076 C9.89243697,21.9428571 10.6420168,22.1747899 11.697479,22.1747899 L19.1495798,22.1747899 C20.205042,22.1747899 20.9512605,21.9428571 21.4352941,21.4689076 C21.9260504,20.9915966 22.1613445,20.2453782 22.1613445,19.1932773 L22.1613445,19.1932773 Z M7.1092437,17.5663866 C10.9647059,17.5663866 12.7596639,15.7882353 12.7596639,11.9697479 C12.7596639,8.1512605 10.9647059,6.3697479 7.1092437,6.3697479 C3.25714286,6.3697479 1.46218487,8.14789916 1.46218487,11.9697479 C1.46218487,15.7882353 3.25714286,17.5663866 7.1092437,17.5663866 Z M22.4773109,1.14285714 C23.2470588,1.9092437 23.6235294,2.98487395 23.6235294,4.42689076 L23.6235294,19.1932773 C23.6235294,20.6521008 23.2470588,21.7344538 22.4672269,22.497479 C21.6941176,23.2537815 20.6084034,23.6235294 19.1495798,23.6235294 L11.7008403,23.6235294 C10.2386555,23.6235294 9.15630252,23.2537815 8.38655462,22.497479 C7.69411765,21.8184874 7.3210084,20.8907563 7.24369748,19.6672269 L7.24369748,19.0084034 C7.2,19.0084034 7.15630252,19.0117647 7.1092437,19.0117647 C2.61848739,19.0151261 0,16.7697479 0,11.9731092 C0,7.17310924 2.61848739,4.92773109 7.1092437,4.92773109 C7.14957983,4.92773109 7.18991597,4.93109244 7.2302521,4.93109244 L7.2302521,4.4302521 C7.2302521,3.00840336 7.60672269,1.9394958 8.37647059,1.16638655 C9.15966387,0.379831933 10.2453782,0 11.7008403,0 L19.1529412,0 C20.6151261,0 21.7042017,0.373109244 22.4773109,1.14285714 L22.4773109,1.14285714 Z M15.4252101,17.7579832 C16.2151261,17.7579832 16.6857143,18.2285714 16.6857143,19.0151261 C16.6857143,19.3983193 16.5747899,19.707563 16.3563025,19.9260504 C16.1344538,20.1512605 15.8117647,20.2689076 15.4218487,20.2689076 C15.0319328,20.2689076 14.7092437,20.1512605 14.487395,19.9260504 C14.2689076,19.7042017 14.1579832,19.3983193 14.1579832,19.0151261 C14.1647059,18.2285714 14.6352941,17.7579832 15.4252101,17.7579832 L15.4252101,17.7579832 Z M4.92436975,8.57142857 C5.32773109,8.57142857 5.65378151,8.89411765 5.65378151,9.29411765 L5.65378151,14.9478992 C5.65378151,15.3512605 5.32436975,15.6739496 4.92436975,15.6739496 C4.52436975,15.6739496 4.19831933,15.3512605 4.19495798,14.9478992 L4.19495798,9.29747899 C4.19831933,8.89747899 4.52436975,8.57142857 4.92436975,8.57142857 Z M9.06554622,8.5512605 C9.46890756,8.5512605 9.79495798,8.87731092 9.79495798,9.27394958 L9.79495798,14.9277311 C9.79495798,15.3310924 9.46554622,15.6537815 9.06554622,15.6537815 C8.66554622,15.6537815 8.3394958,15.3310924 8.33613445,14.9277311 L8.33613445,9.27731092 C8.33613445,8.87731092 8.66218487,8.5512605 9.06554622,8.5512605 Z" id="Movil-pausa_2Regular"></path>
        </g>
    </g>
</svg>

<svg width="24" height="24" viewBox="0 0 24 24" xmlns="http://www.w3.org/2000/svg"><path d="M22.161 19.193V4.43c0-1.042-.235-1.785-.719-2.265-.487-.484-1.237-.716-2.292-.716H11.7c-1.041 0-1.79.238-2.285.733-.487.49-.726 1.223-.726 2.248v.602c3.52.49 5.533 2.74 5.533 6.941 0 4.202-2.007 6.444-5.523 6.938v.713c.054.81.286 1.428.713 1.845.48.474 1.23.706 2.285.706h7.453c1.055 0 1.801-.232 2.285-.706.491-.477.726-1.224.726-2.276zM7.11 17.566c3.856 0 5.65-1.778 5.65-5.596 0-3.819-1.794-5.6-5.65-5.6-3.852 0-5.647 1.778-5.647 5.6 0 3.818 1.795 5.596 5.647 5.596zM22.477 1.143c.77.766 1.147 1.842 1.147 3.284v14.766c0 1.46-.377 2.541-1.157 3.304-.773.757-1.859 1.127-3.317 1.127H11.7c-1.461 0-2.544-.37-3.313-1.127-.693-.679-1.066-1.606-1.143-2.83v-.659c-.044 0-.088.004-.135.004C2.62 19.015 0 16.77 0 11.973c0-4.8 2.618-7.045 7.11-7.045l.12.003v-.5c0-1.423.377-2.492 1.146-3.265C9.16.38 10.246 0 11.701 0h7.452c1.462 0 2.551.373 3.324 1.143zm-7.052 16.615c.79 0 1.26.47 1.26 1.257 0 .383-.11.693-.329.911-.222.225-.544.343-.934.343s-.713-.118-.935-.343c-.218-.222-.329-.528-.329-.91.007-.787.477-1.258 1.267-1.258zm-10.5-9.187c.403 0 .729.323.729.723v5.654a.73.73 0 01-1.459 0v-5.65c.003-.4.33-.727.73-.727zm4.14-.02c.404 0 .73.326.73.723v5.654a.73.73 0 01-1.459 0v-5.65c0-.4.326-.727.73-.727z" fill="#5CB615" fill-rule="nonzero"/></svg>
